teeny/solid/barcode.svg

<svg viewBox="0 0 15 15" xmlns="http://www.w3.org/2000/svg"><path fill-rule="evenodd" d="M0 13V2h1v11H0Zm5 0V2h1v11H5Zm2 0V2h1v11H7Zm3 0V2h1v11h-1Zm4 0V2h1v11h-1Z"/></svg>

<svg width="15" height="15" viewBox="0 0 15 15" fill="none" xmlns="http://www.w3.org/2000/svg">
<path fill-rule="evenodd" clip-rule="evenodd" d="M0 13V2H1V13H0ZM5 13V2H6V13H5ZM7 13V2H8V13H7ZM10 13V2H11V13H10ZM14 13V2H15V13H14Z" fill="black"/>
</svg>
